assets/static/images/logo_white.svg

<?xml version="1.0" encoding="UTF-8" standalone="no"?>
<svg
   xmlns:dc="http://purl.org/dc/elements/1.1/"
   xmlns:cc="http://creativecommons.org/ns#"
   xmlns:rdf="http://www.w3.org/1999/02/22-rdf-syntax-ns#"
   xmlns:svg="http://www.w3.org/2000/svg"
   xmlns="http://www.w3.org/2000/svg"
   width="101"
   height="26"
   viewBox="0 0 101 26"
   fill="none"
   version="1.1"
   id="svg16">
  <metadata
     id="metadata22">
    <rdf:RDF>
      <cc:Work
         rdf:about="">
        <dc:format>image/svg+xml</dc:format>
        <dc:type
           rdf:resource="http://purl.org/dc/dcmitype/StillImage" />
        <dc:title></dc:title>
      </cc:Work>
    </rdf:RDF>
  </metadata>
  <defs
     id="defs20" />
  <path
     d="M35.5533 5.28525H29.6187V3.74341H43.2705V5.28525H37.3359V20.6168H35.5504V5.28525H35.5533Z"
     fill="black"
     id="path2"
     style="fill:#ffffff" />
  <path
     d="M55.4755 14.8086H44.8613C44.9572 16.1259 45.4635 17.1917 46.3802 18.003C47.2969 18.8144 48.4533 19.2215 49.8524 19.2215C50.6403 19.2215 51.3652 19.0808 52.0243 18.7994C52.6834 18.518 53.2556 18.1048 53.7379 17.5569L54.7026 18.6647C54.1394 19.3383 53.4353 19.8532 52.5935 20.2065C51.7487 20.5598 50.82 20.7364 49.8074 20.7364C48.5043 20.7364 47.3509 20.458 46.3473 19.9041C45.3437 19.3503 44.5588 18.5838 43.9956 17.6018C43.4323 16.6228 43.1507 15.5121 43.1507 14.2757C43.1507 13.0392 43.4204 11.9285 43.9596 10.9495C44.4989 9.97049 45.2388 9.20706 46.1795 8.65918C47.1202 8.1143 48.1777 7.83887 49.3521 7.83887C50.5264 7.83887 51.5779 8.11131 52.5126 8.65918C53.4443 9.20407 54.1783 9.96451 54.7086 10.9375C55.2388 11.9105 55.5054 13.0212 55.5054 14.2757L55.4755 14.8086ZM46.2754 10.4795C45.4455 11.2579 44.9752 12.2758 44.8643 13.5272H53.8608C53.7469 12.2728 53.2766 11.2579 52.4497 10.4795C51.6199 9.70105 50.5893 9.31185 49.3491 9.31185C48.1268 9.31185 47.1022 9.70105 46.2754 10.4795Z"
     fill="black"
     id="path4"
     style="fill:#ffffff" />
  <path
     d="M58.9744 4.80277C58.7317 4.56027 58.6119 4.27286 58.6119 3.93455C58.6119 3.61421 58.7317 3.33279 58.9744 3.09028C59.217 2.84778 59.5136 2.72803 59.8671 2.72803C60.2206 2.72803 60.5172 2.84479 60.7599 3.07831C61.0025 3.31183 61.1223 3.58726 61.1223 3.9106C61.1223 4.26388 61.0025 4.56027 60.7599 4.80277C60.5172 5.04527 60.2206 5.16503 59.8671 5.16503C59.5106 5.16503 59.214 5.04527 58.9744 4.80277ZM58.9983 7.93734H60.7119V20.6163H58.9983V7.93734Z"
     fill="black"
     id="path6"
     style="fill:#ffffff" />
  <path
     d="M77.0627 7.93766V25.2931H75.3491V18.2306C74.8189 19.0509 74.1388 19.6736 73.312 20.0987C72.4821 20.5238 71.5564 20.7364 70.5259 20.7364C69.3216 20.7364 68.2371 20.467 67.2814 19.9281C66.3257 19.3892 65.5738 18.6287 65.0256 17.6497C64.4773 16.6708 64.2047 15.5451 64.2047 14.2757C64.2047 13.0212 64.4773 11.9045 65.0256 10.9255C65.5708 9.94654 66.3287 9.1861 67.2934 8.64721C68.258 8.10831 69.3365 7.83887 70.5259 7.83887C71.5864 7.83887 72.5391 8.06341 73.3839 8.51249C74.2287 8.96156 74.9057 9.60524 75.421 10.4405V7.93467H77.0627V7.93766ZM73.0693 18.6048C73.7853 18.1946 74.3485 17.6138 74.7589 16.8564C75.1694 16.1019 75.3731 15.2427 75.3731 14.2757C75.3731 13.3116 75.1664 12.4554 74.7589 11.7099C74.3485 10.9615 73.7853 10.3807 73.0693 9.96151C72.3533 9.54237 71.5534 9.3358 70.6697 9.3358C69.7679 9.3358 68.9621 9.54537 68.2461 9.96151C67.5301 10.3807 66.9668 10.9615 66.5564 11.7099C66.146 12.4584 65.9423 13.3116 65.9423 14.2757C65.9423 15.2397 66.149 16.0989 66.5564 16.8564C66.9668 17.6108 67.5301 18.1946 68.2461 18.6048C68.9621 19.0149 69.7679 19.2185 70.6697 19.2185C71.5564 19.2185 72.3563 19.0149 73.0693 18.6048Z"
     fill="black"
     id="path8"
     style="fill:#ffffff" />
  <path
     d="M93.2704 7.93774V20.6167H91.6317V18.3025C91.1823 19.0749 90.5622 19.6737 89.7743 20.0988C88.9864 20.5239 88.0847 20.7365 87.0721 20.7365C85.4154 20.7365 84.1092 20.2754 83.1536 19.3503C82.1979 18.4252 81.7186 17.072 81.7186 15.2877V7.93774H83.4322V15.12C83.4322 16.4553 83.7617 17.4672 84.4208 18.1558C85.0799 18.8474 86.0206 19.1917 87.2429 19.1917C88.579 19.1917 89.6305 18.7875 90.4034 17.9732C91.1764 17.1618 91.5628 16.0331 91.5628 14.5871V7.93774H93.2704Z"
     fill="black"
     id="path10"
     style="fill:#ffffff" />
  <path
     d="M98.0455 4.80277C97.8028 4.56027 97.683 4.27286 97.683 3.93455C97.683 3.61421 97.8028 3.33279 98.0455 3.09028C98.2881 2.84778 98.5847 2.72803 98.9382 2.72803C99.2917 2.72803 99.5883 2.84479 99.831 3.07831C100.074 3.31183 100.193 3.58726 100.193 3.9106C100.193 4.26388 100.074 4.56027 99.831 4.80277C99.5883 5.04527 99.2917 5.16503 98.9382 5.16503C98.5847 5.16503 98.2881 5.04527 98.0455 4.80277ZM98.0724 7.93734H99.786V20.6163H98.0724V7.93734Z"
     fill="black"
     id="path12"
     style="fill:#ffffff" />
  <path
     d="M10.1841 0.233714C8.08424 0.632802 6.10583 1.5802 4.48492 2.97181C-0.228562 7.01821 -1.34619 13.5563 1.70126 19.2268C2.74947 21.1772 4.39815 22.7596 6.37309 23.7556C8.42786 24.7898 10.5659 25.293 12.6519 25.293C15.453 25.293 18.1603 24.3837 20.4129 22.6243L18.2922 19.9035C15.505 22.076 11.7565 22.4612 8.28903 20.8475C6.66465 20.0909 5.32488 18.8 4.53351 17.1932C2.33643 12.7373 3.52348 7.68104 7.6122 4.9256C8.36539 4.41893 9.20187 4.03373 10.0765 3.79774C15.63 2.28468 20.7183 5.87994 21.6798 10.9223H16.8517C16.6296 10.381 16.2999 9.87429 15.8591 9.43356C14.0854 7.66022 11.2081 7.66022 9.43095 9.43356C7.65732 11.2069 7.65732 14.0838 9.43095 15.8606C11.2046 17.6374 14.0854 17.634 15.8591 15.8606C16.2999 15.4199 16.6296 14.9132 16.8517 14.3718H25.1611C25.234 14.3718 25.293 14.3128 25.293 14.24V12.6471C25.293 4.87008 18.2332 -1.29323 10.1841 0.233714Z"
     fill="#5A59AA"
     id="path14"
     style="fill:#ffffff;fill-opacity:1" />
</svg>

<svg xmlns="http://www.w3.org/2000/svg" width="101" height="26" fill="none"><path d="M35.553 5.285H29.62V3.743H43.27v1.542h-5.934v15.332H35.55V5.285h.003zM55.475 14.809H44.861c.096 1.317.603 2.383 1.52 3.194.916.811 2.072 1.218 3.471 1.218.788 0 1.513-.14 2.172-.422a4.733 4.733 0 001.714-1.242l.965 1.108a5.457 5.457 0 01-2.11 1.541c-.844.354-1.773.53-2.786.53-1.303 0-2.456-.278-3.46-.832a5.994 5.994 0 01-2.351-2.302c-.564-.98-.845-2.09-.845-3.326 0-1.237.27-2.348.809-3.326a5.875 5.875 0 012.22-2.29c.94-.546 1.998-.821 3.172-.821 1.174 0 2.226.272 3.16.82a5.804 5.804 0 012.197 2.278c.53.974.796 2.084.796 3.339l-.03.533zm-9.2-4.33c-.83.779-1.3 1.797-1.41 3.048h8.996c-.114-1.254-.584-2.27-1.411-3.047-.83-.779-1.86-1.168-3.1-1.168-1.223 0-2.248.39-3.075 1.168zM58.974 4.803a1.18 1.18 0 01-.362-.868c0-.32.12-.602.362-.845.243-.242.54-.362.893-.362.354 0 .65.117.893.35.242.234.362.51.362.833 0 .353-.12.65-.362.892-.243.242-.54.362-.893.362-.356 0-.653-.12-.893-.362zm.024 3.134h1.714v12.68h-1.714V7.936zM77.063 7.938v17.355h-1.714v-7.062a5.27 5.27 0 01-2.037 1.868c-.83.425-1.756.637-2.786.637-1.204 0-2.289-.269-3.245-.808a5.83 5.83 0 01-2.255-2.278c-.549-.98-.821-2.105-.821-3.374 0-1.255.272-2.371.82-3.35a5.781 5.781 0 012.268-2.279c.965-.539 2.043-.808 3.233-.808 1.06 0 2.013.224 2.858.673a5.267 5.267 0 012.037 1.928V7.936h1.642v.003zm-3.994 10.667a4.36 4.36 0 001.69-1.749c.41-.754.614-1.613.614-2.58 0-.964-.207-1.82-.614-2.566a4.477 4.477 0 00-1.69-1.748c-.716-.42-1.516-.626-2.4-.626-.901 0-1.707.21-2.423.626-.716.419-1.28 1-1.69 1.748-.41.748-.614 1.602-.614 2.566 0 .964.207 1.823.614 2.58a4.38 4.38 0 001.69 1.749c.716.41 1.522.613 2.424.613.886 0 1.686-.203 2.4-.613zM93.27 7.938v12.679h-1.638v-2.315a4.68 4.68 0 01-1.858 1.797c-.788.425-1.69.637-2.702.637-1.657 0-2.963-.46-3.918-1.386-.956-.925-1.435-2.278-1.435-4.062v-7.35h1.713v7.182c0 1.335.33 2.347.989 3.036.659.691 1.6 1.036 2.822 1.036 1.336 0 2.388-.404 3.16-1.219.773-.811 1.16-1.94 1.16-3.386v-6.65h1.707zM98.046 4.803a1.18 1.18 0 01-.363-.868c0-.32.12-.602.362-.845.243-.242.54-.362.893-.362.354 0 .65.117.893.35.243.234.362.51.362.833 0 .353-.119.65-.362.892s-.54.362-.893.362-.65-.12-.892-.362zm.026 3.134h1.714v12.68h-1.714V7.936zM10.184.234c-2.1.399-4.078 1.346-5.7 2.738-4.713 4.046-5.83 10.584-2.783 16.255a10.858 10.858 0 004.672 4.529c2.055 1.034 4.193 1.537 6.279 1.537 2.801 0 5.508-.91 7.76-2.669l-2.12-2.72c-2.787 2.172-6.536 2.557-10.003.944a7.913 7.913 0 01-3.755-3.655c-2.198-4.456-1.01-9.512 3.078-12.267a8.308 8.308 0 012.464-1.128C15.63 2.285 20.718 5.88 21.68 10.922h-4.828a4.549 4.549 0 00-7.42-1.489 4.545 4.545 0 107.42 4.938h8.31a.132.132 0 00.131-.131v-1.593c0-7.777-7.06-13.94-15.109-12.413z" fill="#fff"/></svg>
